X:116
T:Old Man Dillon
R:jig
D:Terry Bingham
Z:id:hn-jig-116
M:6/8
K:Ador
EAA ABd|edB c2A|BGG DGG|Bdc BAG|EAA ABd|ede a2g|edc Bcd|1 ecA A2G:|2 ecA A2a||
gef g2a|gef ged|BGG DGG|Bdc BAG|1 gef g2a|gef ged|edc Bcd|
ecA A2a:|2 EAA ABd|ede a2g|edc Bcd|ecA A2G||
P:Variations:
|:EAA ABd|edB cBA|BGG DGG|BdB BAG|~A3 ABd|edB eag|edc Bcd|1 eAA A2G:|2 eAA A2a||
gef g2a|g2a ged|BGG dGG|BdB BAG|1 gef g2a|gef ~g3|edc Bcd|
eAA A2a:|2 A2E ABd|edB ~g3|edc Bcd|eAA A2G||

